package/converter/svg/regular/mars-stroke-right.svg

<svg xmlns="http://www.w3.org/2000/svg" viewBox="0 0 640 512"><!-- Font Awesome Pro 6.0.0-alpha2 by @fontawesome - https://fontawesome.com License - https://fontawesome.com/license (Commercial License) --><path d="M616.924 238.896L537.23 159.086C527.795 149.637 512.512 149.637 503.076 159.086S493.641 183.842 503.076 193.291L541.727 232H464V184C464 170.75 453.25 160 440 160S416 170.75 416 184V232H382.176C370.445 146.182 297.041 80 208 80C110.799 80 32 158.799 32 256S110.799 432 208 432C297.041 432 370.445 365.818 382.176 280H416V328C416 341.25 426.75 352 440 352S464 341.25 464 328V280H541.727L503.076 318.709C493.641 328.156 493.641 343.465 503.076 352.914C507.793 357.637 513.973 360 520.152 360S532.514 357.637 537.23 352.914L616.924 273.102C626.359 263.652 626.359 248.346 616.924 238.896ZM208 384C137.42 384 80 326.58 80 256S137.42 128 208 128S336 185.42 336 256S278.58 384 208 384Z"/></svg>

<svg xmlns="http://www.w3.org/2000/svg" viewBox="0 0 640 512"><!--! Font Awesome Pro 6.6.0 by @fontawesome - https://fontawesome.com License - https://fontawesome.com/license (Commercial License) Copyright 2024 Fonticons, Inc. --><path d="M80 256a128 128 0 1 1 256 0A128 128 0 1 1 80 256zm302.4-24C370.7 146.2 297.1 80 208 80C110.8 80 32 158.8 32 256s78.8 176 176 176c89.1 0 162.7-66.2 174.4-152l33.6 0 0 48c0 13.3 10.7 24 24 24s24-10.7 24-24l0-48 78.1 0-31 31c-9.4 9.4-9.4 24.6 0 33.9s24.6 9.4 33.9 0l72-72c9.4-9.4 9.4-24.6 0-33.9l-72-72c-9.4-9.4-24.6-9.4-33.9 0s-9.4 24.6 0 33.9l31 31L464 232l0-48c0-13.3-10.7-24-24-24s-24 10.7-24 24l0 48-33.6 0z"/></svg>
